X:438
T:Dennis Murphy's
R:reel
S:Session Galway 1992
H:A version of Lord McDonald's, #187
Z:id:hn-reel-438
M:C|
K:G
DGBG AGBG|DGBG AGEG|DGBG AGAB|1 d2ed BGGE:|2 d2ed BGGA||
Bdd^c d2ef|g2fg eA~A2|(3Bcd ef ~g3e|1 dBAc BGGA:|2 dBAc BGGE||
